X:1
T:Billings
T:Watts
T:Resignation
%%score [ 1 2 3 4 ]
L:1/8
M:3/2
K:G
V:1 treble nm="Soprano" snm="S"
V:2 alto nm="Alto" snm="A"
V:3 treble-8 nm="Tenor" snm="T"
V:4 bass nm="Bass" snm="B"
V:1
 B4 | (c4 B4) A4 | (G3 A) B4 B4 | G8 F4 | F8 F4 | (G3 A B4) A4 | B8 A4 | A8 A4 | B8 A4 | B8 B4 | %10
w: ||||||||||
 d8 B4 | c8 B4 | B8 (B2 A2) | (G3 A) B4 B4 | B12 |[M:2/2] G4 | B2 c2 B2 B2 | B2 B2 B2 (cd) | %18
w: ||||||||
 e2 (dc) B2 A2 | (d4 e4) | B4 G4 | B2 d2 d2 c2 | (Bc)(dc) B2 A2 | (G3 A B4) | (B3 c d4) | %25
w: |||||bows * *|bows * *|
 (A3 B c4) | (B3 A G2) A2 | c4 A4 | A6 A2 | B6 G2 | F4 B4 | B8 | G4 | B2 c2 B2 B2 | B2 B2 B2 (cd) | %35
w: bows * *|bows * * his|head and|dies and|bows his|head and|dies||||
 e2 (dc) B2 A2 | (d4 e4) | B4 G4 | B2 d2 d2 c2 | (Bc)(dc) B2 A2 | (G3 A B4) | (B3 c d4) | %42
w: |||||bows * *|bows * *|
 (A3 B c4) | (B3 A G2) A2 | c4 A4 | A6 A2 | B6 G2 | F4 B4 | B8 |] %49
w: bows * *|bows * * his|head and|dies and|bows his|head and|dies|
V:2
 E4 | (G3 F E4) F4 | (E3 F G4) F4 | E8 C4 | D8 D4 | (E3 F G4) (F2 GA) | G8 E4 | F8 F4 | G8 A4 | %9
 G8 F4 | F8 E4 | E8 E4 | G8 (D2 EF) | E8 ^D4 | E12 |[M:2/2] E4 | E2 F2 G2 F2 | G2 F2 G2 A2 | %18
 B2 A2 G2 F2 | (G3 A G3 F) | E4 E4 | E2 F2 (GE)(AG) | F2 F2 G2 (FE) | (D4 E4 | F4 G4 | E4 F4 | %26
 D4) E2 F2 | G4 E4 | F6 F2 | (G3 A G2) E2 | D6 D2 | E8 | E4 | E2 F2 G2 F2 | G2 F2 G2 A2 | %35
 B2 A2 G2 F2 | (G3 A G3 F) | E4 E4 | E2 F2 (GE)(AG) | F2 F2 G2 (FE) | (D4 E4 | F4 G4 | E4 F4 | %43
 D4) E2 F2 | G4 E4 | F6 F2 | (G3 A G2) E2 | D6 D2 | E8 |] %49
V:3
 B4 | B8 c4 | (B4 e4) d4 | (c4 B4) A4 | B8 B4 | (B4 e4) d4 | d8 ^c4 | d8 d4 | d8 d4 | e8 d4 | %10
w: Thus|saith the|Rul- * er|of * the|skies A-|wake * my|dread- full|Sword A-|wake my|wrath and|
 (B4 A4) ^G4 | A8 B4 | e8 d4 | (B3 A) G4 F4 | E12 |[M:2/2] B4 | G2 A2 B2 B2 | e2 ^d2 e2 f2 | %18
w: smite * the|man My|fel- low|saith * * the|Lord|Ven-|geance re- ceiv'd the|dread com- mand and|
 g2 (fe) d2 c2 | B8 | B4 B4 | G2 A2 B2 e2 | (dc)(BA) B2 c2 | (B3 A G3 e | d3 c B3 d | c3 B A3 c | %26
w: arm- ed * down she|flies|Jes- us|sub- mits to his|fath * er's * hand And|bows * * *|||
 B6) d2 | d4 ^c4 | d6 d2 | (d2 B2 G2) c2 | B2 (G>B AG) F2 | E8 | B4 | G2 A2 B2 B2 | e2 ^d2 e2 f2 | %35
w: * his|ead and|dies and|bows * * his|head * * * * and|dies|Ven-|geance re- ceiv'd the|dread com- mand And|
 g2 (fe) d2 c2 | B8- | B4 B4 | G2 A2 B2 e2 | (dc)(BA) B2 c2 | (B3 A G3 e | d3 c B3 d | c3 B A3 c | %43
w: arm- ed * down shee|flies|Je- sus|sub- mits to his|fath * er's * hand and|bows * * *|||
 B6) d2 | d4 ^c4 | d6 d2 | (d2 B2 G2) c2 | B2 (G>B AG) F2 | E8 |] %49
w: * his|head and|dies and|bows * * his|head * * * * and|dies|
V:4
 E,4 | (E,3 F, G,4) F,4 | (G,3 F, E,4) B,,4 | E,8 F,4 | B,,8 B,,4 | E,8 F,4 | G,8 A,4 | D,8 D,4 | %8
w: ||||||||
 G,8 F,4 | E,8 B,,4 | (B,,3 C, D,4) E,4 | A,,8 E,4 | E,8 (G,2 F,2) | (G,3 F, E,4) B,,4 | %14
w: ||||||
 [E,,E,]12 |[M:2/2] E,4 | G,2 F,2 E,2 ^D,2 | E,2 (B,A,) G,2 F,2 | E,2 F,2 G,2 A,2 | (G,3 F, E,4-) | %20
w: ||||||
 E,4 E,4 | E,2 D,2 G,2 A,2 | B,2 B,,2 E,2 F,2 | (G,3 F, E,4) | (B,3 A, G,4) | (A,3 G, F,4) | %26
w: |||bows * *|bows * *|bows * *|
 (G,3 F, E,2) D,2 | G,4 A,4 | D,6 D,2 | (G,3 F, E,2) E,2 | B,,6 B,,2 | [E,,E,]8 | E,4 | %33
w: bows * * his|head and|dies and|bows * * his|head and|dies||
 G,2 F,2 E,2 ^D,2 | E,2 (B,A,) G,2 F,2 | E,2 F,2 G,2 A,2 | (G,3 F, E,4-) | E,4 E,4 | %38
w: |||||
 E,2 D,2 G,2 A,2 | B,2 B,,2 E,2 F,2 | (G,3 F, E,4) | (B,3 A, G,4) | (C,3 G, F,4) | %43
w: ||bows * *|bows * *|bows * *|
 (G,3 F, E,2) D,2 | G,4 A,4 | D,6 D,2 | (G,3 F, E,2) E,2 | B,,6 B,,2 | [E,,E,]8 |] %49
w: bows * * his|head and|dies and|bows * * his|head and|dies|

